packages/icons/svg/Outline/funnel.svg

<svg width="24" height="24" viewBox="0 0 24 24" fill="none" xmlns="http://www.w3.org/2000/svg">
<g id="Icon/Outline/funnel">
<path id="Mask" fill-rule="evenodd" clip-rule="evenodd" d="M10.877 17.457L12.903 18.99V14.437C12.903 14.271 12.945 14.108 13.023 13.962L17.323 6H6.64298L10.765 13.978C10.839 14.12 10.877 14.278 10.877 14.437V17.457ZM13.903 22C13.69 22 13.477 21.932 13.3 21.797L9.27398 18.752C9.02398 18.563 8.87698 18.268 8.87698 17.955V14.681L4.11198 5.459C3.95098 5.149 3.96398 4.778 4.14598 4.48C4.32698 4.182 4.65098 4 4.99998 4H19C19.352 4 19.678 4.185 19.859 4.488C20.039 4.79 20.047 5.165 19.88 5.475L14.903 14.69V21C14.903 21.379 14.689 21.726 14.349 21.895C14.208 21.965 14.055 22 13.903 22Z" fill="#000000"/>
</g>
</svg>

<svg fill="none" height="24" viewBox="0 0 24 24" width="24" xmlns="http://www.w3.org/2000/svg"><path clip-rule="evenodd" d="m10.877 17.4571 2.026 1.533v-4.553c0-.166.042-.329.12-.475l4.3-7.96203h-10.67998l4.12198 7.97803c.074.142.112.3.112.459zm3.026 4.5429c-.213 0-.426-.068-.603-.203l-4.02595-3.045c-.25-.189-.397-.484-.397-.797v-3.274l-4.765-9.222c-.161-.31-.148-.681.034-.979.181-.298.505-.48.854-.48h13.99995c.352 0 .678.185.859.488.18.302.188.677.021.987l-4.977 9.215v6.31c0 .379-.214.726-.554.895-.141.07-.294.105-.446.105z" fill="#6b7280" fill-rule="evenodd"/></svg>
